src/assets/icons/literature.svg

<svg xmlns="http://www.w3.org/2000/svg" height="48" width="48"><path d="M28 20.7v-2.4q1.65-.7 3.375-1.05Q33.1 16.9 35 16.9q1.3 0 2.55.2 1.25.2 2.45.5v2.2q-1.2-.45-2.425-.675Q36.35 18.9 35 18.9q-1.9 0-3.65.475T28 20.7Zm0 11v-2.45q1.65-.7 3.375-1.025Q33.1 27.9 35 27.9q1.3 0 2.55.2 1.25.2 2.45.5v2.2q-1.2-.45-2.425-.675Q36.35 29.9 35 29.9q-1.9 0-3.65.45T28 31.7Zm0-5.5v-2.4q1.65-.7 3.375-1.05Q33.1 22.4 35 22.4q1.3 0 2.55.2 1.25.2 2.45.5v2.2q-1.2-.45-2.425-.675Q36.35 24.4 35 24.4q-1.9 0-3.65.475T28 26.2Zm-2.4 10.7q2.5-1.25 4.9-1.875 2.4-.625 5.1-.625 1.9 0 3.925.3t3.475.8V14.05q-1.7-.9-3.6-1.275-1.9-.375-3.8-.375-2.7 0-5.225.825-2.525.825-4.775 2.325Zm-1.4 5.85q-2.6-1.85-5.575-3.025Q15.65 38.55 12.4 38.55q-1.7 0-3.35.475-1.65.475-3.3 1.025-1.65.85-3.275-.1T.85 37.05v-23.1q0-1.25.55-2.325Q1.95 10.55 3.05 10q2.2-.95 4.525-1.375Q9.9 8.2 12.3 8.2q3.2 0 6.2.875t5.6 2.725q2.55-1.8 5.5-2.7 2.95-.9 6.1-.9 2.4 0 4.7.425 2.3.425 4.5 1.375 1.1.55 1.675 1.625t.575 2.325V37.6q0 1.85-1.65 2.65-1.65.8-3.3-.2-1.6-.6-3.25-1.05-1.65-.45-3.35-.45-3.15 0-6 1.225t-5.4 2.975Z"/></svg>

<?xml version="1.0" encoding="UTF-8" standalone="no"?>
<svg
   height="48"
   width="48"
   version="1.1"
   id="svg22"
   sodipodi:docname="literature.svg"
   inkscape:version="1.2.1 (9c6d41e410, 2022-07-14)"
   xmlns:inkscape="http://www.inkscape.org/namespaces/inkscape"
   xmlns:sodipodi="http://sodipodi.sourceforge.net/DTD/sodipodi-0.dtd"
   xmlns="http://www.w3.org/2000/svg"
   xmlns:svg="http://www.w3.org/2000/svg">
  <defs
     id="defs26" />
  <sodipodi:namedview
     id="namedview24"
     pagecolor="#505050"
     bordercolor="#eeeeee"
     borderopacity="1"
     inkscape:showpageshadow="0"
     inkscape:pageopacity="0"
     inkscape:pagecheckerboard="0"
     inkscape:deskcolor="#505050"
     showgrid="false"
     inkscape:zoom="4.9166667"
     inkscape:cx="24"
     inkscape:cy="24.101695"
     inkscape:window-width="1500"
     inkscape:window-height="930"
     inkscape:window-x="-6"
     inkscape:window-y="-6"
     inkscape:window-maximized="1"
     inkscape:current-layer="svg22" />
  <path
     id="path20"
     d="M 28,20.7 V 18.3 Q 29.65,17.6 31.375,17.25 33.1,16.9 35,16.9 q 1.3,0 2.55,0.2 1.25,0.2 2.45,0.5 v 2.2 Q 38.8,19.35 37.575,19.125 36.35,18.9 35,18.9 33.1,18.9 31.35,19.375 29.6,19.85 28,20.7 Z m 0,11 v -2.45 q 1.65,-0.7 3.375,-1.025 Q 33.1,27.9 35,27.9 q 1.3,0 2.55,0.2 1.25,0.2 2.45,0.5 v 2.2 Q 38.8,30.35 37.575,30.125 36.35,29.9 35,29.9 33.1,29.9 31.35,30.35 29.6,30.8 28,31.7 Z m 0,-5.5 V 23.8 Q 29.65,23.1 31.375,22.75 33.1,22.4 35,22.4 q 1.3,0 2.55,0.2 1.25,0.2 2.45,0.5 v 2.2 Q 38.8,24.85 37.575,24.625 36.35,24.4 35,24.4 33.1,24.4 31.35,24.875 29.6,25.35 28,26.2 Z m -2.4,10.7 q 2.5,-1.25 4.9,-1.875 2.4,-0.625 5.1,-0.625 1.9,0 3.925,0.3 Q 41.55,35 43,35.5 V 14.05 Q 41.3,13.15 39.4,12.775 37.5,12.4 35.6,12.4 32.9,12.4 30.375,13.225 27.85,14.05 25.6,15.55 Z m -1.4,5.85 Q 21.6,40.9 18.625,39.725 15.65,38.55 12.4,38.55 10.7,38.55 9.05,39.025 7.4,39.5 5.75,40.05 4.1,40.9 2.475,39.95 0.85,39 0.85,37.05 V 13.95 Q 0.85,12.7 1.4,11.625 1.95,10.55 3.05,10 5.25,9.05 7.575,8.625 9.9,8.2 12.3,8.2 q 3.2,0 6.2,0.875 3,0.875 5.6,2.725 2.55,-1.8 5.5,-2.7 2.95,-0.9 6.1,-0.9 2.4,0 4.7,0.425 2.3,0.425 4.5,1.375 1.1,0.55 1.675,1.625 0.575,1.075 0.575,2.325 V 37.6 q 0,1.85 -1.65,2.65 -1.65,0.8 -3.3,-0.2 -1.6,-0.6 -3.25,-1.05 -1.65,-0.45 -3.35,-0.45 -3.15,0 -6,1.225 Q 26.75,41 24.2,42.75 Z" />
</svg>
